!!!!SEGMENT: pl-kk--kk-i-7--098_gorczycki-grzegorz-gerwazy--insignis-mater-incarnati-dei.krn
!!!cenid: 16xx:937
!!!COM: Gorczycki, Grzegorz Gerwazy
!!!COM-rismid: pe30009207
!!!CDT: ~1666-1734/04/30
!!!CNT: Polish
!!!OTL: Insignis mater incarnati Dei
!!!PDT:
!!!AGN: Sacred
!!!SMS-siglum: PL-Kk
!!!SMS-shelfmark: Kk.I.7
!!!SMS-shelfwork: 098 W
!!!SMS-variant:
!!!SMS-altvar:
!!!NIFC-rismid: 300258175
!!!URL-scan: http://repozytorium.nifc.pl/skany/pl-kk-nut--i-7
!!!ONB-nifc: UWAGA: C (skan 0077, s.146), A (0155, s.130), T(0242, s.146), B(0329, s.142). Następny utwór: Salve mundi Domina
!!!AIN: 1 alto 1 bass 1 soprn 1 tenor
!!!key:
**kern	**text	**text	**text	**text	**kern	**text	**text	**text	**text	**kern	**text	**text	**text	**text	**kern	**text	**text	**text	**text
*part4	*part4	*part4	*part4	*part4	*part3	*part3	*part3	*part3	*part3	*part2	*part2	*part2	*part2	*part2	*part1	*part1	*part1	*part1	*part1
*staff4	*staff4	*staff4	*staff4	*staff4	*staff3	*staff3	*staff3	*staff3	*staff3	*staff2	*staff2	*staff2	*staff2	*staff2	*staff1	*staff1	*staff1	*staff1	*staff1
*Ibass	*	*	*	*	*Itenor	*	*	*	*	*Ialto	*	*	*	*	*Isoprn	*	*	*	*
*I"BASSUS.	*	*	*	*	*I"TENOR.	*	*	*	*	*I"ALTVS.	*	*	*	*	*I"CANTVS.	*	*	*	*
*I'B	*	*	*	*	*I'T	*	*	*	*	*I'A	*	*	*	*	*I'S	*	*	*	*
*clefF4	*	*	*	*	*clefC4	*	*	*	*	*clefC3	*	*	*	*	*clefC4	*	*	*	*
*k[f#]	*	*	*	*	*k[f#]	*	*	*	*	*k[f#]	*	*	*	*	*k[]	*	*	*	*
*e:	*	*	*	*	*e:	*	*	*	*	*e:	*	*	*	*	*e:	*	*	*	*
*M3/2	*	*	*	*	*M3/2	*	*	*	*	*M3/2	*	*	*	*	*M3/2	*	*	*	*
=1	=1	=1	=1	=1	=1	=1	=1	=1	=1	=1	=1	=1	=1	=1	=1	=1	=1	=1	=1
*2\right	*	*	*	*	*	*	*	*	*	*2\right	*	*	*	*	*2\right	*	*	*	*
!LO:TX:a:i:t=De B. V. Maria per Annum.	!	!	!	!	!LO:TX:a:i:t=De B. V. Maria per annum	!	!	!	!	!LO:TX:a:i:t=De B. V. Maria per annum.	!	!	!	!	!LO:TX:a:t=De B. V. Maria per annum	!	!	!	!
2E\	In-	Te	Com-	Mor-	2E/	In-	Te	Com-	Mor-	2g\	In-	Te	Com-	Mor-	2B\	In-	Te	Com-	Mor-
2E\	-si-	o	-pe-	-tis-	2G/	-si-	o	-pe-	-tis-	2g\	-si-	o	-pe-	-tis-	2B\	-si-	o	-pe-	-tis-
2D/	-gnis	Re-	-sce	-que	2A/	-gnis	Re-	-sce	-que	2f#\	-gnis	Re-	-sce	-que	2d\	-gnis	Re-	-sce	-que
=2	=2	=2	=2	=2	=2	=2	=2	=2	=2	=2	=2	=2	=2	=2	=2	=2	=2	=2	=2
4GG/	Ma-	-gi-	Fa-	ho-	1B\	Ma-	-gi-	fa-	ho-	1g\	Ma-	-gi-	Fa-	ho-	1d\	Ma-	-gi-	fa-	ho-
(>4AA/	.	.	.	.	.	.	.	.	.	.	.	.	.	.	.	.	.	.	.
4BB/)	.	.	.	.	.	.	.	.	.	.	.	.	.	.	.	.	.	.	.
4C/	.	.	.	.	.	.	.	.	.	.	.	.	.	.	.	.	.	.	.
2D/	-ter	-na	-mem	-râ	2A/	-ter	-na	-mem	-ra	2f#\	-ter	-na	-mem	-ra	2d\	-ter	-na	-mem	-ra
=3	=3	=3	=3	=3	=3	=3	=3	=3	=3	=3	=3	=3	=3	=3	=3	=3	=3	=3	=3
2.E\	In-	o-	pe-	ô	2.G/	In-	o-	pe-	o	2.e\	In-	o-	pe-	o	2.B\	In-	o-	pe-	o
4E\	-car-	-rat	-stem	Cle-	4G/	-car-	-rat	-stem	Cle-	4e\	-car-	-rat	-stem	Cle-	4B\	-car-	-rat	-stem	Cle-
2A\	-na-	Gens	at-	-mens	2A/	-na-	Gens	at-	-mens	2e\	-na-	gens	at-	-mens	2c\	-na-	Gens	at-	-mens
=4	=4	=4	=4	=4	=4	=4	=4	=4	=4	=4	=4	=4	=4	=4	=4	=4	=4	=4	=4
2E\	-ti	Po-	-que	Ma-	2G/	-ti	Po-	-que	Ma-	2e\	-ti	po-	-que	Ma-	2B\	-ti	po-	-que	Ma-
2B\	De-	-lo-	bel-	-rï-	1F#X/	De-	-lo-	bel-	-ri-	(2e\	De-	-lo-	bel-	-ri-	1B\	De-	-lo-	bel-	-ri-
2BB/	.	.	.	.	.	.	.	.	.	2d#X\)	.	.	.	.	.	.	.	.	.
=5	=5	=5	=5	=5	=5	=5	=5	=5	=5	=5-	=5	=5	=5	=5	=5	=5	=5	=5	=5
1.E\	-i:	-na	-la,	-a	1.E/	-i,	-na,	-la,	-a,	1.e\	-i,	-na	-la	-a	1.B\	-i	-na	-la	-a
=6	=6	=6	=6	=6	=6	=6	=6	=6	=6	=6	=6	=6	=6	=6	=6	=6	=6	=6	=6
2E\	so-	Jam	re-	per	2E/	so-	jam	re-	per	2g\	so-	Jam	re-	Per	2B\	So-	Jam	re-	per
*2\right	*	*	*	*	*	*	*	*	*	*	*	*	*	*	*	*	*	*	*
2D/	-la	jam	-pel-	Te	2B\	-la	jam	-pel-	Te	2f#\	-la	jam	-pel-	Te	2d\	-la	jam	-pel-	Te
2C#X/	pec-	la-	-le	no-	2c#X\	pec-	la-	-le	no-	2e\	pec-	la-	-le	no-	2A#X\	pec-	la-	-le	sit
=7	=7	=7	=7	=7	=7	=7	=7	=7	=7	=7	=7	=7	=7	=7	=7	=7	=7	=7	=7
4BB/	-ca-	-ben-	vi-	-bis	1d\	-ca-	-ben-	vi-	-bis	(4d\	-ca-	-ben-	vi-	-bis	1B\	-ca-	-ben-	vi-	no-
!	!	!	!	!	!	!	!	!	!	!LO:TX:t=P:problem=♯above	!	!	!	!	!	!	!	!	!
(4C#X/	.	.	.	.	.	.	.	.	.	4c#X\	.	.	.	.	.	.	.	.	.
4D/	.	.	.	.	.	.	.	.	.	2B/)	.	.	.	.	.	.	.	.	.
4E/)	.	.	.	.	.	.	.	.	.	.	.	.	.	.	.	.	.	.	.
2F#\	-ti	-ti	-ves	sit	2c#X\	-ti,	-ti	-ves	sit	2f#,<\	-ti	-ti	-ves	sit	2A#X/	-ti	-ti	-ves	-bis
=8	=8	=8	=8	=8	=8	=8	=8	=8	=8	=8	=8	=8	=8	=8	=8	=8	=8	=8	=8
2.G\	non	ad-	ho-	pa-	2.B\	non	o-	ho-	pa-	2.d\	non	ad-	ho-	pa-	2.B\	non	ad-	ho-	pa-
4F#\	sub-	-sis	-sti-	-tens	4B\	sub-	-pe	-sti-	-tens	4d\	sub-	-sis	-sti-	-tens	4B\	sub-	-sis	-sti-	-tens
*	*	*	*	*	*custos:d	*	*	*	*	*	*	*	*	*	*	*	*	*	*
!	!	!	!	!	!LO:SIC:v:l:verse=4:s=Cae	!	!	!	!	!	!	!	!	!	!	!	!	!	!
2E\	-ja-	o-	-um-	Cae-	2e\	-ja-	ad-	-um-	po-	2g\	-ja-	o-	-um-	Cae-	2B\	-ja-	o-	-um-	Cae-
=9	=9	=9	=9	=9	=9	=9	=9	=9	=9	=9	=9	=9	=9	=9	=9	=9	=9	=9	=9
!	!	!	!	!	!LO:LB:g=original	!	!	!	!	!	!	!	!	!	!	!	!	!	!
2BB/	-ces	-pe	-q(ue)	-li	2d\	-ces	-sis	-que	-li	2f#\	-ces	-pe	-que	-li	2B\	-ces	-pe	-que	-li
1F#\	le-	pro-	te-	vi-	1c#X\	le-	pro-	te-	Vi-	1f#\	le-	pro-	te-	vi-	2B\	le-	pro-	te-	vi-
.	.	.	.	.	.	.	.	.	.	.	.	.	.	.	2A#X\	.	.	.	.
=10	=10	=10	=10	=10	=10	=10	=10	=10	=10	=10	=10	=10	=10	=10	=10	=10	=10	=10	=10
1.BB/	-gi:	-na	-la	-a	1.B\	-gi:	-na:	-la:	-a:	1.f#\	-gi	-na	-la	-a	1.B\	-gi:	-na	-la	-a
=11!|:	=11!|:	=11!|:	=11!|:	=11!|:	=11!|:	=11!|:	=11!|:	=11!|:	=11!|:	=11!|:	=11!|:	=11!|:	=11!|:	=11!|:	=11!|:	=11!|:	=11!|:	=11!|:	=11!|:
!LO:LB:g=original	!	!	!	!	!	!	!	!	!	!LO:LB:g=original	!	!	!	!	!LO:LB:g=original	!	!	!	!
2GG/	Ne	Pri-	Pa-	O	2d\	nè	pri-	Pa-	o	2g\	Ne	Pri-	Pa-	O	2B\	Nè	Pri-	Pa-	O
2AA/	nos	-mô	-tro-	pi-	2cn\	nos	-mo	-tro-	Pi-	(4e\	nos	-mo	-tro-	Pi-	2A/	nos	-mo	-tro-	Pi-
.	.	.	.	.	.	.	.	.	.	4f#\)	.	.	.	.	.	.	.	.	.
(4BB/	la-	pec-	-na	-a	2B\	la-	pec-	-na	-a	2g\	la-	pec-	-na	-a	2G/	la-	pec-	-na	-a
4C/)	.	.	.	.	.	.	.	.	.	.	.	.	.	.	.	.	.	.	.
=12	=12	=12	=12	=12	=12	=12	=12	=12	=12	=12	=12	=12	=12	=12	=12	=12	=12	=12	=12
1D\	-ba-	-ca-	no-	Ma-	1A\	-ba-	-ca-	no-	Ma-	(2g\	-ba-	-ca-	no-	Ma-	(2.d\	-ba-	-ca-	no-	Ma-
.	.	.	.	.	.	.	.	.	.	2f#\)	.	.	.	.	.	.	.	.	.
.	.	.	.	.	.	.	.	.	.	.	.	.	.	.	4c\)	.	.	.	.
2GG/	-mur	-to	-stra	-ter	2G/	-mur	-to	-stra	-ter	2g\	-mur	-to	-stra	-ter	2B\	-mur	-to	-stra	-ter
=13	=13	=13	=13	=13	=13	=13	=13	=13	=13	=13	=13	=13	=13	=13	=13	=13	=13	=13	=13
2.D/	si-	In-	si-	si-	2.A\	si-	in-	si-	si-	2.f#\	si-	in-	si-	si-	2.F#X/	si-	In-	si-	si-
4BB/	-ne	-con-	-ne	-ne	4B\	-ne	-con-	-ne	-ne	4d\	-ne	-con-	-ne	-ne	4G/	-ne	-con-	-ne	-ne
2AA/	la-	-ta-	la-	la-	2c\	la-	-ta-	la-	la-	2f#\	la-	-ta-	la-	la-	2A\	la-	-ta-	la-	la-
=14	=14	=14	=14	=14	=14	=14	=14	=14	=14	=14	=14	=14	=14	=14	=14	=14	=14	=14	=14
2GG/	-be	-mi-	-be	-be	2B\	-be	-mi-	-be	-be	2g\	-be	-mi-	-be	-be	2B\	-be	-mi-	-be	-be
2C/	Na-	-na-	Na-	na-	1A\	na-	-na-	na-	na-	2g\	na-	-na-	na-	na-	(2c\	na-	-na-	na-	na-
2D\	.	.	.	.	.	.	.	.	.	2f#\	.	.	.	.	2A\)	.	.	.	.
=15	=15	=15	=15	=15	=15-	=15	=15	=15	=15	=15	=15	=15	=15	=15	=15	=15	=15	=15	=15
1.GG/	-ta.	-ta.	-ta!	-ta!	1.G/	-ta	-ta	-ta	-ta	1.g\	-ta	-ta	-ta	-ta	1.B\	-ta	-ta	-ta	-ta
=16	=16	=16	=16	=16	=16	=16	=16	=16	=16	=16	=16	=16	=16	=16	=16	=16	=16	=16	=16
1D\	.	Vir-	.	.	1A\	.	Vir-	.	.	1f#\	.	Vir-	.	.	1d\	.	Vir-	.	.
2G\	.	-go	.	.	2B\	.	-go	.	.	2d\	.	-go	.	.	2B\	.	-go	.	.
=17	=17	=17	=17	=17	=17-	=17	=17	=17	=17	=17	=17	=17	=17	=17	=17	=17	=17	=17	=17
2E\	.	Be-	.	.	2G/	.	Be-	.	.	2e\	.	Be-	.	.	2B\	.	Be-	.	.
1BB/	.	-a-	.	.	1F#X/	.	-a-	.	.	2e\	.	-a-	.	.	1B\	.	-a-	.	.
.	.	.	.	.	.	.	.	.	.	2d#X\	.	.	.	.	.	.	.	.	.
=18	=18	=18	=18	=18	=18	=18	=18	=18	=18	=18	=18	=18	=18	=18	=18	=18	=18	=18	=18
!	!	!	!	!	!LO:N:vis=0.	!	!	!	!	!	!	!	!	!	!	!	!	!	!
1.E\	.	-ta!	.	.	1.E/	.	-ta.	.	.	1.e\	.	-ta.	.	.	1.B\	.	-ta.	.	.
=:|!	=:|!	=:|!	=:|!	=:|!	=:|!	=:|!	=:|!	=:|!	=:|!	=:|!	=:|!	=:|!	=:|!	=:|!	=:|!	=:|!	=:|!	=:|!	=:|!
*-	*-	*-	*-	*-	*-	*-	*-	*-	*-	*-	*-	*-	*-	*-	*-	*-	*-	*-	*-
!!!RDF**kern: > = above
!!!RDF**kern: < = below
!!!system-decoration: [(s1,s2,s3,s4)]
!!!EED: Andrzej Borzym
!!!EST: 2021-03-20
!!!ENC: Krzysztof Stępień
!!!END: 2021-03-04
